svgs/solid/face-beam-hand-over-mouth.svg

<svg xmlns="http://www.w3.org/2000/svg" viewBox="0 0 512 512"><!--! Font Awesome Pro 6.2.0 by @fontawesome - https://fontawesome.com License - https://fontawesome.com/license (Commercial License) Copyright 2022 Fonticons, Inc. --><path d="M512 256c0 113.1-73.3 209.1-175.1 242.9l49-49c18.1-18.1 18.7-47.1 1.8-65.9c16.9-18.8 16.3-47.8-1.8-65.9c-1-1-2.1-2-3.2-3c3.7-15.7-.5-32.8-12.8-45s-29.4-16.5-45-12.8c-.9-1.1-1.9-2.2-3-3.2c-18.7-18.7-49.1-18.7-67.9 0L207 301.1c-9.4-13.7-25.1-22.7-43-22.7c-28.7 0-52 23.3-52 52V384v32.8c0 21.9 5.5 42.5 15.3 60.5C51.2 433 0 350.5 0 256C0 114.6 114.6 0 256 0S512 114.6 512 256zM217.6 212.8l0 0 0 0 0 0c2.1 2.8 5.7 3.9 8.9 2.8s5.5-4.1 5.5-7.6c0-17.9-6.7-35.6-16.6-48.8c-9.8-13-23.9-23.2-39.4-23.2s-29.6 10.2-39.4 23.2C126.7 172.4 120 190.1 120 208c0 3.4 2.2 6.5 5.5 7.6s6.9 0 8.9-2.8l0 0 0 0 0 0 .2-.2c.2-.2 .4-.5 .7-.9c.6-.8 1.6-2 2.8-3.4c2.5-2.8 6-6.6 10.2-10.3c8.8-7.8 18.8-14 27.7-14s18.9 6.2 27.7 14c4.2 3.7 7.7 7.5 10.2 10.3c1.2 1.4 2.2 2.6 2.8 3.4c.3 .4 .6 .7 .7 .9l.2 .2 0 0zm160 0l0 0 0 0c2.1 2.8 5.7 3.9 8.9 2.8s5.5-4.1 5.5-7.6c0-17.9-6.7-35.6-16.6-48.8c-9.8-13-23.9-23.2-39.4-23.2s-29.6 10.2-39.4 23.2C286.7 172.4 280 190.1 280 208c0 3.4 2.2 6.5 5.5 7.6s6.9 0 8.9-2.8l0 0 0 0 0 0 .2-.2c.2-.2 .4-.5 .7-.9c.6-.8 1.6-2 2.8-3.4c2.5-2.8 6-6.6 10.2-10.3c8.8-7.8 18.8-14 27.7-14s18.9 6.2 27.7 14c4.2 3.7 7.7 7.5 10.2 10.3c1.2 1.4 2.2 2.6 2.8 3.4c.3 .4 .6 .7 .7 .9l.2 .2 0 0 0 0zm-78.3 63.9c6.2 6.2 6.2 16.4 0 22.6L248 350.6c-2.6 2.6-2.6 6.8 0 9.4s6.8 2.6 9.4 0l67.3-67.3c6.2-6.2 16.4-6.2 22.6 0s6.2 16.4 0 22.6L280 382.6c-2.6 2.6-2.6 6.8 0 9.4s6.8 2.6 9.4 0l51.3-51.3c6.2-6.2 16.4-6.2 22.6 0s6.2 16.4 0 22.6L312 414.6c-2.6 2.6-2.6 6.8 0 9.4s6.8 2.6 9.4 0l19.3-19.3c6.2-6.2 16.4-6.2 22.6 0s6.2 16.4 0 22.6l-56.8 56.8C288.7 502 264.4 512 239.2 512c-52.6 0-95.2-42.6-95.2-95.2V384 330.4c0-11 9-20 20-20s20 9 20 20v19.7c0 7.1 8.6 10.7 13.7 5.7l79-79c6.2-6.2 16.4-6.2 22.6 0z"/></svg>

<svg xmlns="http://www.w3.org/2000/svg" viewBox="0 0 512 512"><!--! Font Awesome Pro 6.1.2 by @fontawesome - https://fontawesome.com License - https://fontawesome.com/license (Commercial License) Copyright 2022 Fonticons, Inc. --><path d="M512 256C512 369.1 438.7 465.1 336.9 498.9L385.9 449.9C404.1 431.8 404.7 402.8 387.8 384C404.7 365.2 404.1 336.2 385.9 318.1C384.9 317 383.8 316 382.7 315.1C386.4 299.4 382.2 282.3 369.9 270.1C357.7 257.8 340.6 253.6 324.9 257.3C323.1 256.2 322.1 255.1 321.9 254.1C303.2 235.3 272.8 235.3 254.1 254.1L206.1 301.1C197.6 287.4 181.9 278.4 164 278.4C135.3 278.4 112 301.7 112 330.4V416.8C112 438.7 117.5 459.3 127.3 477.3C51.17 432.1 0 350.5 0 256C0 114.6 114.6 0 256 0C397.4 0 512 114.6 512 256zM226.5 215.6C229.8 214.5 232 211.4 232 208C232 190.1 225.3 172.4 215.4 159.2C205.6 146.2 191.5 136 176 136C160.5 136 146.4 146.2 136.6 159.2C126.7 172.4 120 190.1 120 208C120 211.4 122.2 214.5 125.5 215.6C128.7 216.7 132.3 215.6 134.4 212.8L134.4 212.8L134.6 212.5C134.8 212.3 134.1 212 135.3 211.6C135.1 210.8 136.9 209.7 138.1 208.3C140.6 205.4 144.1 201.7 148.3 197.1C157.1 190.2 167.2 184 176 184C184.8 184 194.9 190.2 203.7 197.1C207.9 201.7 211.4 205.4 213.9 208.3C215.1 209.7 216 210.8 216.7 211.6C217 212 217.2 212.3 217.4 212.5L217.6 212.8L217.6 212.8C219.7 215.6 223.3 216.7 226.5 215.6V215.6zM377.6 212.8C379.7 215.6 383.3 216.7 386.5 215.6C389.8 214.5 392 211.4 392 208C392 190.1 385.3 172.4 375.4 159.2C365.6 146.2 351.5 136 336 136C320.5 136 306.4 146.2 296.6 159.2C286.7 172.4 280 190.1 280 208C280 211.4 282.2 214.5 285.5 215.6C288.7 216.7 292.3 215.6 294.4 212.8L294.4 212.8L294.6 212.5C294.8 212.3 294.1 212 295.3 211.6C295.1 210.8 296.9 209.7 298.1 208.3C300.6 205.4 304.1 201.7 308.3 197.1C317.1 190.2 327.2 184 336 184C344.8 184 354.9 190.2 363.7 197.1C367.9 201.7 371.4 205.4 373.9 208.3C375.1 209.7 376 210.8 376.7 211.6C377 212 377.2 212.3 377.4 212.5L377.6 212.8L377.6 212.8zM299.3 276.7C305.6 282.9 305.6 293.1 299.3 299.3L248 350.6C245.4 353.2 245.4 357.4 248 360C250.6 362.6 254.8 362.6 257.4 360L324.7 292.7C330.9 286.4 341.1 286.4 347.3 292.7C353.6 298.9 353.6 309.1 347.3 315.3L280 382.6C277.4 385.2 277.4 389.4 280 392C282.6 394.6 286.8 394.6 289.4 392L340.7 340.7C346.9 334.4 357.1 334.4 363.3 340.7C369.6 346.9 369.6 357.1 363.3 363.3L312 414.6C309.4 417.2 309.4 421.4 312 424C314.6 426.6 318.8 426.6 321.4 424L340.7 404.7C346.9 398.4 357.1 398.4 363.3 404.7C369.6 410.9 369.6 421.1 363.3 427.3L306.5 484.1C288.7 501.1 264.4 512 239.2 512C186.6 512 144 469.4 144 416.8V330.4C144 319.4 152.1 310.4 164 310.4C175 310.4 184 319.4 184 330.4V350.1C184 357.2 192.6 360.8 197.7 355.7L276.7 276.7C282.9 270.4 293.1 270.4 299.3 276.7L299.3 276.7z"/></svg>
